icons/lines/binance-usd--busd-.svg

<svg xmlns="http://www.w3.org/2000/svg" width="24" height="24" viewBox="0 0 24 24" fill="none" stroke="currentColor" stroke-width="2" stroke-linecap="round" stroke-linejoin="round" >
  <path d="M11.4004 2.4L6.30039 7.5C6.10039 7.7 6.10039 8 6.30039 8.2L8.00039 9.9C8.20039 10.1 8.50039 10.1 8.70039 9.9L13.8004 4.8C14.0004 4.6 14.0004 4.3 13.8004 4.1L12.1004 2.4C11.9004 2.2 11.6004 2.2 11.4004 2.4Z" stroke-miterlimit="10"/>
  <path d="M15.3004 6.30002L6.30039 15.3C6.10039 15.5 6.10039 15.8 6.30039 16L8.00039 17.7C8.20039 17.9 8.50039 17.9 8.70039 17.7L17.7004 8.70002C17.9004 8.50002 17.9004 8.20002 17.7004 8.00002L16.0004 6.30002C15.8004 6.10002 15.5004 6.10002 15.3004 6.30002Z" stroke-miterlimit="10"/>
  <path d="M19.1998 10.2L10.1998 19.2C9.9998 19.4 9.9998 19.7 10.1998 19.9L11.8998 21.6C12.0998 21.8 12.3998 21.8 12.5998 21.6L21.5998 12.6C21.7998 12.4 21.7998 12.1 21.5998 11.9L19.8998 10.2C19.6998 9.99999 19.3998 9.99999 19.1998 10.2Z" stroke-miterlimit="10"/>
  <path d="M4.1 13.8L2.4 12.1C2.2 11.9 2.2 11.6 2.4 11.4L4.1 9.69999C4.3 9.49999 4.6 9.49999 4.8 9.69999L6.5 11.4C6.7 11.6 6.7 11.9 6.5 12.1L4.8 13.8C4.6 14 4.3 14 4.1 13.8Z" stroke-miterlimit="10"/>
  </svg>

<svg xmlns="http://www.w3.org/2000/svg" width="24" height="24" viewBox="0 0 24 24" fill="none" stroke="currentColor" stroke-width="2" stroke-linecap="round" stroke-linejoin="round">
  <path d="M10.2 19.2a.483.483 0 0 0 0 .7l1.7 1.7a.483.483 0 0 0 .7 0l9-9a.483.483 0 0 0 0-.7l-1.7-1.7a.483.483 0 0 0-.7 0z" />
  <path d="M2.4 12.1a.483.483 0 0 1 0-.7l1.7-1.7a.483.483 0 0 1 .7 0l1.7 1.7a.483.483 0 0 1 0 .7l-1.7 1.7a.483.483 0 0 1-.7 0z" />
  <path d="M6.3 15.3a.483.483 0 0 0 0 .7L8 17.7a.483.483 0 0 0 .7 0l9-9a.483.483 0 0 0 0-.7L16 6.3a.483.483 0 0 0-.7 0z" />
  <path d="M6.3 7.5a.483.483 0 0 0 0 .7L8 9.9a.483.483 0 0 0 .7 0l5.1-5.1a.483.483 0 0 0 0-.7l-1.7-1.7a.483.483 0 0 0-.7 0z" />
</svg>
